src/assets/logo.svg

<svg width="419" height="419" viewBox="0 0 419 419" fill="none" xmlns="http://www.w3.org/2000/svg">
<path fill-rule="evenodd" clip-rule="evenodd" d="M187.605 108.292L246.373 245.041L277.453 173.276L250.894 108.292H187.605ZM274.626 311.72L361.083 108.292H418.721L332.264 311.72H274.626Z" fill="black"/>
<path fill-rule="evenodd" clip-rule="evenodd" d="M28.0765 212.266H97.1938V212.261C97.382 212.264 97.5705 212.266 97.7595 212.266C113.676 212.266 126.578 199.364 126.578 183.447C126.578 167.545 113.699 154.651 97.8018 154.629H97.7171C97.5423 154.629 97.3679 154.631 97.1938 154.634V154.629L0 154.629V108.292H102.844V108.294C103.032 108.293 103.221 108.292 103.41 108.292C148.662 108.292 185.346 141.687 185.346 182.882C185.346 210.681 168.641 234.928 143.872 247.758L187.607 311.72L187.606 311.72L125.448 311.72L125.448 311.72L88.219 257.472H57.6378V311.72H0V212.266L28.0765 212.266ZM92.1836 257.472L92.3889 257.763L91.8754 257.472H92.1836Z" fill="black"/>
</svg>

<svg xmlns="http://www.w3.org/2000/svg" width="419" height="419" fill="none"><path fill="#000" fill-rule="evenodd" d="m187.605 108.292 58.768 136.749 31.08-71.765-26.559-64.984h-63.289Zm87.021 203.428 86.457-203.428h57.638L332.264 311.72h-57.638ZM28.076 212.266h69.118v-.005c.188.003.376.005.566.005 15.916 0 28.818-12.902 28.818-28.819 0-15.902-12.879-28.796-28.776-28.818h-.085c-.175 0-.35.002-.523.005v-.005H0v-46.337h102.844v.002l.566-.002c45.252 0 81.936 33.395 81.936 74.59 0 27.799-16.705 52.046-41.474 64.876l43.735 63.962h-62.159l-37.229-54.248H57.638v54.248H0v-99.454h28.076Zm64.108 45.206.205.291-.514-.291h.309Z" clip-rule="evenodd"/></svg>
